!!!OTL: Die Schneiderhochzeit (246), S. 526
!!!id: T0434
**kern
*clefG2
*k[]
*G:
{8d
=1
8g
8g
8g
8g
=2
8g
8g
16g
16g}
=3
{8b
=4
8d
8d
8d
16d
16d
=5
4g}
8r
=6
{8dd
=7
8dd
8dd
8dd
8dd
=8
8ee
8ee}
8r
=9
{8cc
=10
8cc
8cc
8b
8a
=11
8dd
8dd}
8r
=12
{8b
=13
8b
8a
8b
8cc
=14
4dd}
=15
{4ee
=16
8dd
8cc
8b
8a
=17
4g}
8r
==
*-
!!!minrhy: 16
!!!meters: 2/4 ]  ZZ[6
!!!cut: Die Schneiderhochzeit (246), S. 526
!!!reg: Luxemburg
!!!trd: Singendes Volk, Esch-Alzette, 1937 posth.
!!!rhy1: X_  X_X_X_X_  X_X_XX
!!!rhy2: X_  X_X_X_XX  X__0_
!!!key: T0434  16  G 2/4 ]  ZZ[6
!!!mod: SECHSTONSKALA DUR ?]  AMBITUS[9
!!!kad: 116551
!!!akz: 11_-51_56_45_35_51_
!!!fot: 'a__b__c__d__e__f__
!!!for: 'a__b__aw_aw_aw_aw_
!!!fok: '/__Vd_/__Va_/__\__
!! PHRAS[AUFTAKTIG]
!!!fkt: Berufslied, Hochzeitslied
!!!bem: Heffingen, fff Marie Berchem, 1909
!! THILL; Mathias
!! PR[38] 2K[2] 2G[10] 3K[5] 3G[2] 4A[7] 4Ü[0] 5A[2] 6K[0] 6G[0]
!! 7K[0] 7G[0] 8A[0] MEHR[0] SI[29] ABS[42] SR[12] SP[17]
!! ST[9] 2k[2] 2g[10] 3k[12] 3g[7] 4d[2] 4ü[0] 5d[0] 6k[0] 6g[0]
!! 7k[0] 7g[0] 8d[0] mehr[0] si[33] dm[-4] sr[12] sp[21]
!! 1F[9] 2F[74] 3F[17] 4F[0] LF[0] 2P[0] 3P[0] 4P[0] TRI[0] DF[3] AB[46]
!! TF[0] U3K[0] U3[0] U4[0] U4Ü[0] U5[0] U6K[0] U6[0] U7K[0] U7[0]
!! N1[7] N2K[0] N2[5] N3K[0] N3[14] N4[2] N4Ü[2] N5[40] N6K[0] N6[16]
!!!n7k: 0] N7[2] O1[12] O2K[0] O2[0] O3K[0] O3[0] HÖ[0
